assets/images/svg/stripe.svg

<svg width="20" height="20" viewBox="0 0 20 20" fill="none" xmlns="http://www.w3.org/2000/svg">
<g clip-path="url(#clip0_1_17384)">
<path d="M5.15605 6.52188L3.80293 6.80938L3.79668 11.2594C3.79668 12.0812 4.41543 12.6125 5.2373 12.6125C5.69355 12.6125 6.02793 12.5281 6.2123 12.4281V11.3719C6.03418 11.4437 5.15918 11.7 5.15918 10.8813V8.90625H6.2123V7.725H5.15918L5.15605 6.52188ZM7.94043 8.13438L7.85605 7.725H6.65605V12.5125H8.04043V9.29063C8.36855 8.85938 8.92168 8.94375 9.0998 9V7.725C8.9123 7.65938 8.26543 7.5375 7.94043 8.13438ZM10.8248 5.875L9.43106 6.17188V7.30313L10.8248 7.00625V5.875ZM1.40293 9.13438C1.40293 8.91875 1.58418 8.83438 1.8748 8.83125C2.29668 8.83125 2.83418 8.95938 3.25605 9.1875V7.88125C2.81697 7.70994 2.34923 7.62403 1.87793 7.62813C0.75293 7.62813 0.00292969 8.21563 0.00292969 9.19688C0.00292969 10.7344 2.1123 10.4844 2.1123 11.1469C2.1123 11.4031 1.89043 11.4875 1.58105 11.4875C1.12168 11.4875 0.52793 11.2969 0.0623047 11.0438V12.2938C0.57793 12.5156 1.0998 12.6094 1.57793 12.6094C2.73105 12.6094 3.5248 12.1156 3.5248 11.1156C3.5248 9.4625 1.40293 9.75938 1.40293 9.13438ZM19.9998 10.175C19.9998 8.75313 19.3123 7.63125 17.9936 7.63125C16.6748 7.63125 15.8717 8.75312 15.8717 10.1656C15.8717 11.8375 16.8186 12.6094 18.1686 12.6094C18.8311 12.6094 19.3279 12.4594 19.7061 12.25V11.2063C19.3279 11.3969 18.8936 11.5125 18.3436 11.5125C17.8029 11.5125 17.3279 11.3219 17.2654 10.6719H19.9811C19.9873 10.6 19.9998 10.3094 19.9998 10.175ZM17.2529 9.65C17.2529 9.025 17.6373 8.7625 17.9842 8.7625C18.3248 8.7625 18.6873 9.025 18.6873 9.65H17.2529ZM13.7248 7.63125C13.1811 7.63125 12.8311 7.8875 12.6373 8.06563L12.5654 7.72187H11.3436V14.1219L12.7311 13.8281L12.7342 12.2594C12.9342 12.4062 13.2311 12.6094 13.7154 12.6094C14.7092 12.6094 15.6154 11.8844 15.6154 10.1219C15.6186 8.50938 14.6998 7.63125 13.7248 7.63125ZM13.3936 11.4594C13.0686 11.4594 12.8748 11.3406 12.7404 11.1969L12.7311 9.13438C12.8748 8.975 13.0748 8.85938 13.3936 8.85938C13.8998 8.85938 14.2498 9.42813 14.2498 10.1531C14.2529 10.9 13.9092 11.4594 13.3936 11.4594ZM9.43418 12.5125H10.8279V7.725H9.43418V12.5125Z" fill="#00162E"/>
</g>
<defs>
<clipPath id="clip0_1_17384">
<rect width="20" height="20" fill="white"/>
</clipPath>
</defs>
</svg>

<svg xmlns="http://www.w3.org/2000/svg" width="20" height="20" fill="none" viewBox="0 0 20 20"><g clip-path="url(#a)"><path fill="#00162e" d="m5.156 6.522-1.353.287-.006 4.45c0 .822.618 1.354 1.44 1.354.457 0 .79-.085.975-.185v-1.056c-.178.072-1.053.328-1.053-.49V8.905h1.053V7.725H5.16zM7.94 8.134l-.084-.409h-1.2v4.788H8.04V9.29c.329-.432.882-.347 1.06-.291V7.725c-.188-.066-.835-.187-1.16.41m2.885-2.259-1.394.297v1.131l1.394-.297zm-9.422 3.26c0-.216.181-.3.472-.304.422 0 .96.128 1.381.357V7.88a3.7 3.7 0 0 0-1.378-.253c-1.125 0-1.875.588-1.875 1.569 0 1.537 2.11 1.287 2.11 1.95 0 .256-.223.34-.532.34-.46 0-1.053-.19-1.519-.443v1.25a3.85 3.85 0 0 0 1.516.315c1.153 0 1.947-.493 1.947-1.493 0-1.653-2.122-1.357-2.122-1.982M20 10.174c0-1.422-.688-2.544-2.006-2.544-1.32 0-2.122 1.122-2.122 2.535 0 1.672.947 2.443 2.297 2.443.662 0 1.159-.15 1.537-.359v-1.044c-.378.19-.812.306-1.362.306-.541 0-1.016-.19-1.079-.84h2.716a10 10 0 0 0 .019-.497m-2.747-.525c0-.625.384-.888.731-.888.34 0 .703.263.703.888zm-3.528-2.019c-.544 0-.894.256-1.088.435l-.072-.344h-1.221v6.4l1.387-.294.003-1.569c.2.147.497.35.981.35.994 0 1.9-.725 1.9-2.487.004-1.613-.915-2.49-1.89-2.49m-.331 3.828c-.325 0-.52-.118-.654-.262l-.009-2.063c.144-.159.344-.275.663-.275.506 0 .856.57.856 1.294.003.747-.34 1.306-.856 1.306m-3.96 1.053h1.394V7.725H9.434z"/></g><defs><clipPath id="a"><path fill="#fff" d="M0 0h20v20H0z"/></clipPath></defs></svg>
